X:1
T:Title
%%score { 1 | ( 2 3 ) }
L:1/8
M:4/4
K:Db
V:1 treble nm="Grand Piano"
V:2 bass 
V:3 bass 
V:1
 z4 z2[Q:1/4=106] F2 | F3 F FFGE | A6 A2 | D4 [CE]4 |[M:3/4] [DF]6 |[M:1/4] [CG]2 | %6
[M:4/4] [CG]3 [CG] [CG][CG][CA][CE] | F2 B4 F2 | E4 B4 |[M:3/4] [CA]6 |[M:1/4] A2 | %11
[M:4/4] [Fd]3 [Fd] [Fd][Fd][Gc][GB] | [FA]6 [DA]2 | [=DB]4 [DF]4 |[M:3/4] [EG]6 |[M:1/4] [EG]2 | %16
[M:4/4] [EG]3 [EG] [EG][EG][DF][CE] | F2 A4[K:bass] [F,D]2 | [A,DF]4 [G,CE]4 |[M:3/4] [F,D]6 |] %20
V:2
 z4 z2 [D,A,D]2 | [D,A,D]3 [D,A,D] [D,A,D][D,A,D][E,A,C][G,A,C] | [F,A,D]6 [D,F,D]2 | %3
 [B,,F,]4 [A,,A,]4 |[M:3/4] [D,A,]6 |[M:1/4] [A,,E,]2 | %6
[M:4/4] [A,,E,]3 [A,,E,] [A,,E,][A,,E,][A,,E,][A,,A,] | [A,D]2 z2 z4 | [E,A,C]4 [E,=G,D]4 | %9
[M:3/4] [A,,A,]6 |[M:1/4] [A,G]2 |[M:4/4] [D,A,]3 [D,A,] [D,A,][D,A,][D,A,][D,C] | [D,D]6 [D,F,]2 | %13
 [B,,F,]4 [B,,B,]4 |[M:3/4] [E,B,]6 |[M:1/4] [C,A,]2 | %16
[M:4/4] [A,,A,]3 [A,,A,] [A,,A,][A,,A,][A,,A,][A,,A,] | A,2 z2 z4 | A,,4 A,,4 |[M:3/4] D,6 |] %20
V:3
 x8 | x8 | x8 | x8 |[M:3/4] x6 |[M:1/4] x2 |[M:4/4] x8 | D,2- [D,DG]4 [D,A,D]2 | x8 |[M:3/4] x6 | %10
[M:1/4] x2 |[M:4/4] x8 | x8 | x8 |[M:3/4] x6 |[M:1/4] x2 |[M:4/4] x8 | [D,D]2- [D,F,D]4 B,,2 | x8 | %19
[M:3/4] x6 |] %20

